!!!OTL: Sipan
!!!ARE: Asia, China,ÿShandong, Rizhao
!! III, 395
!!!SCT: C1576D
!!!YEM: Copyright 1995, estate of Helmut Schaffrath.
**kern
*ICvox
*Ivox
!! Mixed meters:  2/4; 3/4
*M3/4
*k[f#c#g#d#]
*E:
{8b
16b
16b
16cc#
16b
16cc#
16ee
=1
2b
=2
8b
16f#
16g#
8b
16g#
16f#
=3
2e}
=4
{8.cc#
16b
4cc#
=5
8ee
16cc#
16b
4g#
=6
8b
16f#
16g#
8b
16g#
16f#
=7
2e}
=8
{8b
16f#
16g#
4b
=9
16cc#
16b
16cc#
16ee
8.b
16g#
=10
16f#
16g#
16f#
16e
8e
4c#
8e
=11
*M2/4
8f#
8g#
8e
8c#
=12
4B}
{8.B
16c#
=13
8e
8f#
8e
8c#
=14
4.B
8c#
=15
2B}
==
!!!AGN: Xiaodiao, Shuluo
!!!AMT: irregular
!!!AIN: vox
!!!EED: Helmut Schaffrath
!!!EEV: 1.0
*-
